resources/haticons/SVG/dynamic_feed.svg

<!-- Generated by IcoMoon.io -->
<svg version="1.1" xmlns="http://www.w3.org/2000/svg" width="24" height="24" viewBox="0 0 24 24">
<title>dynamic_feed</title>
<path d="M3.984 12v6.984h9v2.016h-9q-0.797 0-1.383-0.609t-0.586-1.406v-6.984h1.969zM20.016 11.016v-4.031h-8.016v4.031h8.016zM20.016 3q0.797 0 1.383 0.609t0.586 1.406v6q0 0.797-0.586 1.383t-1.383 0.586h-8.016q-0.797 0-1.406-0.586t-0.609-1.383v-6q0-0.797 0.609-1.406t1.406-0.609h8.016zM8.016 8.016v6.984h9v2.016h-9q-0.797 0-1.406-0.609t-0.609-1.406v-6.984h2.016z"></path>
</svg>

<svg xmlns="http://www.w3.org/2000/svg" width="24" height="24"><path d="M3.984 12v6.984h9V21h-9q-.797 0-1.383-.609t-.586-1.406v-6.984h1.969zm16.032-.984V6.985H12v4.031h8.016zm0-8.016q.797 0 1.383.609t.586 1.406v6q0 .797-.586 1.383t-1.383.586H12q-.797 0-1.406-.586t-.609-1.383v-6q0-.797.609-1.406T12 3h8.016zm-12 5.016V15h9v2.016h-9q-.797 0-1.406-.609t-.609-1.406V8.017h2.016z"/></svg>
